<?xml version="1.0" encoding="UTF-8"?>
<map version="1.10" tiledversion="1.10.2" orientation="orthogonal" renderorder="right-down" width="32" height="28" tilewidth="32" tileheight="32" infinite="0" nextlayerid="3" nextobjectid="1">
 <tileset firstgid="1" name="nature" tilewidth="32" tileheight="32" tilecount="32" columns="8">
  <image source="../tilesets/nature.png" width="256" height="128"/>
  <tile id="4">
   <properties>
    <property name="collides" type="bool" value="true"/>
   </properties>
  </tile>
 </tileset>
 <layer id="1" name="ground" width="32" height="28">
  <data encoding="csv">
5,5,6,1,1,1,1,1,2,2,17,1,17,1,1,1,8,1,1,2,17,17,2,1,17,1,1,17,1,1,2,1,
5,5,6,1,17,2,17,1,1,1,1,1,17,17,2,1,8,1,1,2,2,1,1,2,1,1,1,17,17,1,2,2,
5,5,6,2,17,2,1,1,1,1,17,1,2,1,1,1,8,2,17,1,1,17,1,1,2,1,17,2,1,1,2,1,
5,5,6,1,1,2,1,17,17,1,1,1,17,17,1,1,8,2,1,1,1,1,2,2,2,1,1,17,2,2,17,1,
5,5,6,1,1,1,1,2,1,2,1,1,1,17,17,1,8,2,1,17,1,2,2,1,1,1,1,17,1,2,1,1,
5,5,6,17,1,2,1,2,2,2,17,2,1,1,1,17,8,3,3,3,3,2,17,1,17,2,2,1,1,2,2,1,
5,5,6,1,2,1,17,1,2,1,1,2,1,1,17,3,8,3,3,3,3,3,1,17,1,1,2,1,1,2,1,2,
5,5,6,1,17,1,17,17,1,4,3,3,1,2,2,3,8,3,3,3,3,3,1,17,1,1,1,17,1,2,1,2,
5,5,6,1,1,1,17,3,3,3,3,3,3,3,17,3,8,3,3,3,3,3,1,1,1,2,1,2,2,17,2,1,
5,5,6,2,17,1,2,3,4,4,3,3,4,3,2,1,8,3,3,3,3,1,1,2,17,17,1,2,2,1,1,1,
5,5,6,2,17,1,3,3,4,3,3,4,3,4,4,1,8,1,1,1,1,17,1,1,17,1,17,17,1,17,1,2,
5,5,6,2,1,1,1,4,3,3,3,3,3,4,2,1,8,1,17,2,2,1,2,1,7,7,7,7,7,1,1,1,
5,5,6,1,1,2,2,4,3,3,3,4,3,3,1,1,8,17,17,1,1,1,1,2,7,7,7,7,7,1,17,1,
5,5,6,2,1,17,1,1,1,4,4,3,1,2,1,1,8,17,1,1,1,1,2,1,7,7,7,7,7,1,1,2,
5,5,6,8,8,8,8,8,8,8,8,8,8,8,8,8,8,8,8,8,8,8,8,8,8,8,8,8,8,8,8,8,
5,5,6,2,2,2,2,1,17,2,1,17,17,17,1,2,8,1,2,1,4,4,4,4,4,7,7,7,7,17,1,17,
5,5,6,17,1,2,17,1,1,2,1,17,1,1,1,2,8,17,4,4,4,18,4,4,18,4,18,1,2,17,17,2,
5,5,6,17,17,2,1,2,1,2,17,2,17,1,2,17,8,2,4,18,18,18,18,4,18,4,4,2,1,1,1,1,
5,5,6,1,1,1,1,18,18,18,1,1,17,2,2,2,8,4,4,4,18,4,18,4,18,4,4,4,1,1,2,2,
5,5,6,2,1,1,18,18,18,18,18,2,17,1,1,1,8,2,18,4,4,18,4,4,4,18,4,17,2,2,1,2,
5,5,6,2,2,18,18,18,18,18,18,18,2,1,1,1,8,2,18,4,18,4,18,4,4,18,4,2,1,2,2,17,
5,5,6,1,1,1,18,18,18,18,18,1,2,2,2,2,8,17,2,2,18,18,4,18,4,1,1,17,2,1,2,17,
5,5,6,1,1,1,2,18,18,18,1,17,2,1,1,1,8,1,2,17,1,17,2,17,1,2,1,2,1,17,1,1,
5,5,6,2,2,2,2,2,1,17,1,17,1,2,1,1,8,2,17,2,2,1,1,17,1,1,1,17,2,2,2,1,
5,5,6,17,17,1,1,1,1,17,1,17,2,17,1,1,8,2,1,1,1,1,2,1,2,1,1,17,1,2,17,17,
5,5,6,1,1,2,17,1,2,1,2,2,2,17,2,1,8,2,1,1,1,2,2,17,1,2,17,2,1,17,1,1,
5,5,6,1,17,17,1,2,17,2,1,2,1,1,2,1,8,2,17,1,2,17,1,1,1,17,2,1,1,17,1,1,
5,5,6,1,1,2,1,17,1,2,1,1,17,1,1,1,8,2,2,1,2,1,2,1,17,2,2,1,1,17,17,2,
</data>
 </layer>
 <layer id="2" name="decor" width="32" height="28">
  <data encoding="csv">
0,0,0,0,0,0,0,14,19,0,9,0,20,0,0,0,0,0,22,11,11,16,0,0,0,0,20,0,0,12,21,0,
0,0,0,0,0,13,0,0,13,0,23,19,0,0,0,0,0,0,0,0,0,0,15,0,0,0,0,0,0,0,19,0,
0,0,0,0,0,0,0,0,0,0,0,0,0,0,0,0,0,0,0,10,0,22,23,0,0,13,10,9,0,14,0,0,
0,0,0,0,0,20,13,0,0,0,0,0,0,0,0,0,0,0,21,14,23,0,16,0,0,11,0,21,13,0,0,9,
0,0,0,0,0,0,0,0,0,0,0,0,0,0,24,10,0,0,0,0,12,20,0,0,0,0,0,0,19,12,10,0,
0,0,0,0,0,0,0,0,0,24,10,0,0,0,21,0,0,0,0,0,16,0,0,10,0,24,0,0,0,0,24,0,
0,0,0,13,0,13,0,13,0,0,16,0,12,0,14,0,0,12,20,0,0,16,0,23,13,0,0,11,0,0,9,9,
0,0,0,0,0,13,13,13,13,0,0,0,21,24,0,0,0,0,0,0,0,20,0,0,0,0,0,0,14,22,0,0,
0,0,0,0,21,0,0,13,0,0,0,0,19,22,0,0,0,0,0,0,0,9,0,0,0,0,14,0,0,0,0,0,
0,0,0,0,13,10,0,0,0,0,0,0,0,0,0,0,0,15,0,10,19,0,0,11,0,0,0,0,0,11,22,14,
0,0,0,0,0,0,0,0,0,0,0,0,0,0,0,23,0,0,0,0,0,9,0,0,0,0,20,0,15,0,12,20,
0,0,0,24,0,0,13,13,0,0,0,0,0,13,0,0,0,0,0,0,0,13,0,11,0,0,0,0,0,0,20,0,
0,0,0,0,0,0,13,0,0,0,0,0,9,0,0,0,0,0,10,9,16,15,23,16,0,0,0,0,0,0,0,0,
0,0,0,0,13,0,12,21,13,0,0,0,0,0,0,0,0,0,21,16,0,0,0,13,0,0,0,0,0,0,0,0,
0,0,0,0,0,0,0,0,0,0,0,0,0,0,0,0,0,0,0,0,0,0,0,0,0,0,0,0,0,0,0,0,
0,0,0,13,0,0,0,0,0,0,0,0,0,13,0,0,0,0,0,0,0,0,0,0,0,0,0,0,0,0,0,24,
0,0,0,0,0,0,0,0,0,12,0,13,0,16,0,9,0,0,0,0,22,0,0,0,14,12,0,0,13,0,12,0,
0,0,0,0,21,0,0,0,0,0,0,0,0,0,16,10,0,0,0,0,22,0,0,0,0,0,0,0,13,23,0,0,
0,0,0,0,0,0,0,0,19,0,0,0,0,0,0,0,0,23,0,0,0,0,0,0,0,0,11,0,0,0,0,0,
0,0,0,0,0,13,14,0,13,0,0,14,0,24,0,0,0,0,0,0,10,16,0,16,0,0,0,0,0,22,0,0,
0,0,0,13,13,0,13,10,0,11,11,0,0,0,0,0,0,11,0,20,0,24,11,21,0,0,0,9,0,0,0,15,
0,0,0,0,0,0,23,0,0,24,14,14,0,0,24,0,0,22,0,0,0,0,0,0,0,0,10,20,11,0,21,0,
0,0,0,0,0,24,0,0,0,24,0,0,0,0,0,12,0,0,9,0,0,21,0,0,0,0,12,0,0,0,0,0,
0,0,0,16,0,0,21,13,10,0,14,0,10,0,9,0,0,0,0,19,0,0,0,0,0,0,11,0,0,0,0,13,
0,0,0,0,0,0,0,0,0,20,0,16,0,22,0,24,0,9,0,0,0,0,20,0,0,0,23,0,0,0,21,0,
0,0,0,0,13,13,0,0,0,0,0,0,0,13,0,9,0,0,19,22,0,11,0,9,0,0,0,0,0,0,23,16,
0,0,0,21,0,0,0,13,21,0,0,12,0,12,20,10,0,0,0,0,0,0,0,10,0,20,15,22,0,0,0,15,
0,0,0,0,24,0,0,0,0,14,9,0,0,14,0,11,0,0,15,15,0,14,0,0,15,22,19,22,11,0,19,9,
</data>
 </layer>
</map>
